X:1
T: Mr. Charles Grant
C:Alexander Walker
R:Strathspey
Q: 128
K:D
M:4/4
L:1/16
|:d2|A4 GFED EB,3 B,3E|F3A G3B Ad3 d3f|A4 GFED EB,3 B,3E|d3B A2F2 D6 d2|
A4 GFED EB,3 B,3E|F3A G3B Ad3 d3f|A4 GFED EB,3 B,3E|d3B A2F2 D6 g2|
fd3 d3A =c3d e2g2|fd3 e2f2 a3b a2g2|f3d d2A2 =cd3 e2f2|d3B A2F2 D4 D3g|
fd3 d3A =c3d e2g2|fd3 d2A2 Bd3 AF3|G3A BAGF BE3 E3F|D3B, B,2A,2 D6:|
